dist/assets/img/logo-galandra-cinza.svg

<svg width="131" height="35" viewBox="0 0 131 35" xmlns="http://www.w3.org/2000/svg"><title>logo-galandra</title><g id="Page-1" fill="none" fill-rule="evenodd"><g id="Desktop-HD" fill="#9898A6"><g id="Footer"><g id="caelum-logo-logo"><path d="M528.8 59.9c-.5 0-.8.6-.8.6-1.7 3.2-3.5 5.4-4.7 5.4-.3 0-.6-.3-.6-.6 0-2.9 2.4-8.6 2.4-9.9 0-.9-2.1-1.3-3.4-1.3 0 0-1.9-2-4.7-2-3.3 0-6.8 6-7.6 10.6-1.2 1.9-2.3 3.1-3.3 3.1-.1 0-.3-.1-.3-.5 0-2 2-8.2 2-9.4 0-1.5-4.5-2.1-4.5-2.7 0-.9.5-1.5.5-2.3 0-.8-2.2-2.2-3.2-2.2-1.4 0-2.7 2.8-2.7 4 0 1.2 1.7 2.4 1.7 2.4s-1.2 2.9-2.4 5.2c-.1.1-.1.2-.1.2-1.8 3.2-3.5 5.3-4.8 5.3-.2 0-.6-.5-.6-.6 0-1.5 1.5-6.6 2.6-10.3 1.5-5.2 1.9-6.5 1.9-7.3 0-.6-2.7-2.2-3.7-2.2-.6 0-.8.2-1 .7l-2 6.8s-1.6-1-3.2-1c-3.1 0-6.1 4.7-7.4 9.1-1.7 3-3.4 4.9-4.5 4.9-.2 0-.3-.2-.3-.4 0-1.9 2.2-8.7 2.2-10.4 0-1.3-2.3-2.9-3.7-2.9-2 0-5.3 1.7-5.3 1.7s-1.6-1.7-2.4-1.7c-.5 0-1.2.2-1.5.7-.4 1.4-1.4 5.3-2.3 8.7-1.5 2.6-3 4.3-4.1 4.3-.3 0-.6-.3-.6-.6 0-2.9 2.4-8.6 2.4-9.9 0-.9-2.1-1.3-3.4-1.3 0 0-1.9-2-4.7-2-3.5 0-7.2 6.7-7.8 11.4-1 1.4-2 2.3-2.8 2.3-.2 0-.6-.2-.6-.4 0-1.7 4.2-15.7 4.5-16.8.1-.3.1-.6.1-.9 0-.6-2.9-2.4-3.7-2.4-.5 0-.9.2-1.1.7-.8 2.4-3 9.9-4.2 14.9-1.6 2.9-3.3 4.9-4.4 4.9-.3 0-.6-.3-.6-.6 0-2.9 2.4-8.6 2.4-9.9 0-.9-2.1-1.3-3.4-1.3 0 0-1.9-2-4.7-2-3.2 0-6.6 5.7-7.6 10.2-1 1.4-2.2 2.3-3.7 3.4 1.5-5.2 2.6-9.7 2.6-10.3 0-.9-2-1.4-3.4-1.4 0 0-1.9-1.9-4.7-1.9-3.4.2-7.6 7.9-7.6 12.6 0 1.9 3 4.3 5 4.3 1.4 0 3-1.5 3-1.5s-.2.7-.8 2.2c-2.4 1.6-3.8 2.4-5.2 3.5-1.1.8-1.5 1.7-1.5 3 0 1.2 2.5 3.5 4.7 3.5 1.4 0 3.5-.5 4.2-1.7.7-1.2 1.9-5 3.1-9 1.6-1 3.2-1.9 4.6-3.3.8 1.7 3.3 3.3 4.7 3.3 1.9 0 4-2.1 4-2.1.5 1 3.2 2.1 4.8 2.1 1.5 0 2.8-1 4-2.6.7 1.4 3.7 2.6 5.4 2.6 1.4 0 2.7-1 3.9-2.4 1.1 1.3 3.1 2.4 4.2 2.4 1.9 0 4-2.1 4-2.1.5 1 3.2 2.1 4.8 2.1 1.2 0 2.3-.7 3.3-1.8.1.9 2.6 1.8 3.4 1.8.6 0 1.2-.4 1.4-.8.2-1 1.8-8.2 2.8-10.6.5-1.1 1.9-1.7 2.6-1.7.4 0 .7.4.7.7 0 1.4-2 7.1-2 9.3 0 1.6 3.6 3.1 5.2 3.1s3.1-1.3 4.4-3.1c.7 1.4 3 3.1 4.8 3.1 1.6 0 4.2-2.2 4.2-2.2.5.7 3 2.2 4.6 2.2 2.5 0 4.6-3.1 6.5-6.6.2-.2.3-.5.3-.5 1.7-3.2 2.7-5.6 2.7-5.6s.8.2.8.4c0 1.8-1.8 6.6-1.8 9.3 0 1.4 3.2 3 5.1 3 1.5 0 2.8-1.1 4.1-2.7 1 1.5 3.2 2.7 4.4 2.7 1.9 0 4-2.1 4-2.1.5 1 3.2 2.1 4.8 2.1 2.6 0 4.7-3.2 6.6-6.8 0 0 .5-.8.5-1.2-.3-.5-1-1-1.5-1zM405.1 75.6c-.3.4-.8.7-1.2.7-.2 0-.6-.3-.6-.5 0-.6.5-1.4 2.9-3-.5 1.6-.9 2.5-1.1 2.8zm3.5-12.7c-1 2-2 2.7-2.6 2.7-.4 0-.7-.4-.7-.8 0-3.1 2.4-9.1 3.9-9.1.6 0 1.2.4 1.2.6 0 1-1.1 5.1-1.8 6.6zm16.7 0c-1 2.1-2.4 2.7-2.8 2.7-.3 0-.7-.4-.7-.8 0-3.1 2.9-9.1 4.1-9.1.6 0 1.3.4 1.3.9 0 1-1.2 4.8-1.9 6.3zm26.2 0c-1 2.1-2.4 2.7-2.8 2.7-.3 0-.7-.4-.7-.8 0-3.1 2.9-9.1 4.1-9.1.6 0 1.3.4 1.3.9 0 1-1.1 4.8-1.9 6.3zm35.2-.3c-.4 1.2-1.9 2.9-2.7 2.9-.2 0-.6-.4-.6-1.1 0-2.6 2.6-8.9 4-8.9.6 0 1.3.6 1.3.6-.6 2.4-1.2 4.2-2 6.5zm31 .3c-1 2.1-2.4 2.7-2.8 2.7-.3 0-.7-.4-.7-.8 0-3.1 2.9-9.1 4.1-9.1.6 0 1.3.4 1.3.9 0 1-1.2 4.8-1.9 6.3z" id="logo-galandra" transform="translate(-400 -45)"/></g></g></g></g></svg>

<?xml version="1.0" encoding="UTF-8" standalone="no"?>
<svg width="131px" height="35px" viewBox="0 0 131 35" version="1.1" xmlns="http://www.w3.org/2000/svg" xmlns:xlink="http://www.w3.org/1999/xlink" xmlns:sketch="http://www.bohemiancoding.com/sketch/ns">
    <!-- Generator: sketchtool 3.4.4 (395) - http://www.bohemiancoding.com/sketch -->
    <title>logo-galandra</title>
    <desc>Created with sketchtool.</desc>
    <defs></defs>
    <g id="Page-1" stroke="none" stroke-width="1" fill="none" fill-rule="evenodd" sketch:type="MSPage">
        <g id="Desktop-HD" sketch:type="MSArtboardGroup" transform="translate(-532.000000, -3993.000000)" fill="#9898A6">
            <g id="Footer" sketch:type="MSLayerGroup" transform="translate(0.000000, 3808.000000)">
                <g id="caelum-logo-logo" transform="translate(132.000000, 140.000000)" sketch:type="MSShapeGroup">
                    <path d="M528.8,59.9 C528.3,59.9 528,60.5 528,60.5 C526.3,63.7 524.5,65.9 523.3,65.9 C523,65.9 522.7,65.6 522.7,65.3 C522.7,62.4 525.1,56.7 525.1,55.4 C525.1,54.5 523,54.1 521.7,54.1 C521.7,54.1 519.8,52.1 517,52.1 C513.7,52.1 510.2,58.1 509.4,62.7 C508.2,64.6 507.1,65.8 506.1,65.8 C506,65.8 505.8,65.7 505.8,65.3 C505.8,63.3 507.8,57.1 507.8,55.9 C507.8,54.4 503.3,53.8 503.3,53.2 C503.3,52.3 503.8,51.7 503.8,50.9 C503.8,50.1 501.6,48.7 500.6,48.7 C499.2,48.7 497.9,51.5 497.9,52.7 C497.9,53.9 499.6,55.1 499.6,55.1 C499.6,55.1 498.4,58 497.2,60.3 C497.1,60.4 497.1,60.5 497.1,60.5 C495.3,63.7 493.6,65.8 492.3,65.8 C492.1,65.8 491.7,65.3 491.7,65.2 C491.7,63.7 493.2,58.6 494.3,54.9 C495.8,49.7 496.2,48.4 496.2,47.6 C496.2,47 493.5,45.4 492.5,45.4 C491.9,45.4 491.7,45.6 491.5,46.1 C491,47.8 489.5,52.9 489.5,52.9 C489.5,52.9 487.9,51.9 486.3,51.9 C483.2,51.9 480.2,56.6 478.9,61 C477.2,64 475.5,65.9 474.4,65.9 C474.2,65.9 474.1,65.7 474.1,65.5 C474.1,63.6 476.3,56.8 476.3,55.1 C476.3,53.8 474,52.2 472.6,52.2 C470.6,52.2 467.3,53.9 467.3,53.9 C467.3,53.9 465.7,52.2 464.9,52.2 C464.4,52.2 463.7,52.4 463.4,52.9 C463,54.3 462,58.2 461.1,61.6 C459.6,64.2 458.1,65.9 457,65.9 C456.7,65.9 456.4,65.6 456.4,65.3 C456.4,62.4 458.8,56.7 458.8,55.4 C458.8,54.5 456.7,54.1 455.4,54.1 C455.4,54.1 453.5,52.1 450.7,52.1 C447.2,52.1 443.5,58.8 442.9,63.5 C441.9,64.9 440.9,65.8 440.1,65.8 C439.9,65.8 439.5,65.6 439.5,65.4 C439.5,63.7 443.7,49.7 444,48.6 C444.1,48.3 444.1,48 444.1,47.7 C444.1,47.1 441.2,45.3 440.4,45.3 C439.9,45.3 439.5,45.5 439.3,46 C438.5,48.4 436.3,55.9 435.1,60.9 C433.5,63.8 431.8,65.8 430.7,65.8 C430.4,65.8 430.1,65.5 430.1,65.2 C430.1,62.3 432.5,56.6 432.5,55.3 C432.5,54.4 430.4,54 429.1,54 C429.1,54 427.2,52 424.4,52 C421.2,52 417.8,57.7 416.8,62.2 C415.8,63.6 414.6,64.5 413.1,65.6 C414.6,60.4 415.7,55.9 415.7,55.3 C415.7,54.4 413.7,53.9 412.3,53.9 C412.3,53.9 410.4,52 407.6,52 C404.2,52.2 400,59.9 400,64.6 C400,66.5 403,68.9 405,68.9 C406.4,68.9 408,67.4 408,67.4 C408,67.4 407.8,68.1 407.2,69.6 C404.8,71.2 403.4,72 402,73.1 C400.9,73.9 400.5,74.8 400.5,76.1 C400.5,77.3 403,79.6 405.2,79.6 C406.6,79.6 408.7,79.1 409.4,77.9 C410.1,76.7 411.3,72.9 412.5,68.9 C414.1,67.9 415.7,67 417.1,65.6 C417.9,67.3 420.4,68.9 421.8,68.9 C423.7,68.9 425.8,66.8 425.8,66.8 C426.3,67.8 429,68.9 430.6,68.9 C432.1,68.9 433.4,67.9 434.6,66.3 C435.3,67.7 438.3,68.9 440,68.9 C441.4,68.9 442.7,67.9 443.9,66.5 C445,67.8 447,68.9 448.1,68.9 C450,68.9 452.1,66.8 452.1,66.8 C452.6,67.8 455.3,68.9 456.9,68.9 C458.1,68.9 459.2,68.2 460.2,67.1 C460.3,68 462.8,68.9 463.6,68.9 C464.2,68.9 464.8,68.5 465,68.1 C465.2,67.1 466.8,59.9 467.8,57.5 C468.3,56.4 469.7,55.8 470.4,55.8 C470.8,55.8 471.1,56.2 471.1,56.5 C471.1,57.9 469.1,63.6 469.1,65.8 C469.1,67.4 472.7,68.9 474.3,68.9 C475.9,68.9 477.4,67.6 478.7,65.8 C479.4,67.2 481.7,68.9 483.5,68.9 C485.1,68.9 487.7,66.7 487.7,66.7 C488.2,67.4 490.7,68.9 492.3,68.9 C494.8,68.9 496.9,65.8 498.8,62.3 C499,62.1 499.1,61.8 499.1,61.8 C500.8,58.6 501.8,56.2 501.8,56.2 C501.8,56.2 502.6,56.4 502.6,56.6 C502.6,58.4 500.8,63.2 500.8,65.9 C500.8,67.3 504,68.9 505.9,68.9 C507.4,68.9 508.7,67.8 510,66.2 C511,67.7 513.2,68.9 514.4,68.9 C516.3,68.9 518.4,66.8 518.4,66.8 C518.9,67.8 521.6,68.9 523.2,68.9 C525.8,68.9 527.9,65.7 529.8,62.1 C529.8,62.1 530.3,61.3 530.3,60.9 C530,60.4 529.3,59.9 528.8,59.9 L528.8,59.9 Z M405.1,75.6 C404.8,76 404.3,76.3 403.9,76.3 C403.7,76.3 403.3,76 403.3,75.8 C403.3,75.2 403.8,74.4 406.2,72.8 C405.7,74.4 405.3,75.3 405.1,75.6 L405.1,75.6 Z M408.6,62.9 C407.6,64.9 406.6,65.6 406,65.6 C405.6,65.6 405.3,65.2 405.3,64.8 C405.3,61.7 407.7,55.7 409.2,55.7 C409.8,55.7 410.4,56.1 410.4,56.3 C410.4,57.3 409.3,61.4 408.6,62.9 L408.6,62.9 Z M425.3,62.9 C424.3,65 422.9,65.6 422.5,65.6 C422.2,65.6 421.8,65.2 421.8,64.8 C421.8,61.7 424.7,55.7 425.9,55.7 C426.5,55.7 427.2,56.1 427.2,56.6 C427.2,57.6 426,61.4 425.3,62.9 L425.3,62.9 Z M451.5,62.9 C450.5,65 449.1,65.6 448.7,65.6 C448.4,65.6 448,65.2 448,64.8 C448,61.7 450.9,55.7 452.1,55.7 C452.7,55.7 453.4,56.1 453.4,56.6 C453.4,57.6 452.3,61.4 451.5,62.9 L451.5,62.9 Z M486.7,62.6 C486.3,63.8 484.8,65.5 484,65.5 C483.8,65.5 483.4,65.1 483.4,64.4 C483.4,61.8 486,55.5 487.4,55.5 C488,55.5 488.7,56.1 488.7,56.1 C488.1,58.5 487.5,60.3 486.7,62.6 L486.7,62.6 Z M517.7,62.9 C516.7,65 515.3,65.6 514.9,65.6 C514.6,65.6 514.2,65.2 514.2,64.8 C514.2,61.7 517.1,55.7 518.3,55.7 C518.9,55.7 519.6,56.1 519.6,56.6 C519.6,57.6 518.4,61.4 517.7,62.9 L517.7,62.9 Z" id="logo-galandra"></path>
                </g>
            </g>
        </g>
    </g>
</svg>
